X: 11261
T: Dusty Windowsills
R: jig
M: 6/8
K: Adorian
|:A2B cBA|eAB cBA|GAG EGG|DGG EFG|
A2B cBA|e2d efg|age dBG|1 ~A3 A2E:|2 ~A3 A2e||
|:~a3 age|dB/^c/d g3|gag gfe|dBA GAG|
EGG DGG|EFG ABc|Bed BAG|1 ~A3 A2e:|2 ~A3 A2E||
|:A2A g2f|A2A edB|G2e edB|G2e edB|
A2A g2f|A2e efg|age dBG|~A3 A2E:|

